X:608
T: "Hasenleid"
N: Z1288
O: Europa, Mitteleuropa, Deutschland, Rhein
R: Jaeger - Lied
M: 4/4
L: 1/16
K: G
D4 | G6G2A4G2G2 | A4GFGAB4z2
D2 | G4G4A4G2F2 | G6A2B4z2
D2 | G3GF3FE4D4 | G3GF3FE4D2
D2 | D2G2G2G2G4z2A2 | B2B2c2c2d4z2
B2 | c2e2A2c2B6G2 | A6F2G4

